svg/fluentui-system-icons/ic_fluent_virtual_network_20_regular.svg

<svg width="20" height="20" viewBox="0 0 20 20" fill="none" xmlns="http://www.w3.org/2000/svg">
<path d="M4.8254 6.12038C5.03506 6.30009 5.05934 6.61574 4.87963 6.8254L2.15854 10L4.87963 13.1746C5.05934 13.3843 5.03506 13.6999 4.8254 13.8796C4.61573 14.0593 4.30008 14.0351 4.12037 13.8254L1.12037 10.3254C0.959876 10.1382 0.959876 9.86186 1.12037 9.67461L4.12037 6.17461C4.30008 5.96495 4.61573 5.94067 4.8254 6.12038ZM15.1204 13.1746C14.9407 13.3843 14.965 13.6999 15.1746 13.8796C15.3843 14.0593 15.6999 14.0351 15.8796 13.8254L18.8796 10.3254C19.0401 10.1382 19.0401 9.86186 18.8796 9.67461L15.8796 6.17461C15.6999 5.96495 15.3843 5.94067 15.1746 6.12038C14.965 6.30009 14.9407 6.61574 15.1204 6.8254L17.8415 10L15.1204 13.1746ZM6 11C6.55228 11 7 10.5523 7 10C7 9.44771 6.55228 9 6 9C5.44772 9 5 9.44771 5 10C5 10.5523 5.44772 11 6 11ZM11 10C11 10.5523 10.5523 11 10 11C9.44771 11 9 10.5523 9 10C9 9.44771 9.44771 9 10 9C10.5523 9 11 9.44771 11 10ZM14 11C14.5523 11 15 10.5523 15 10C15 9.44771 14.5523 9 14 9C13.4477 9 13 9.44771 13 10C13 10.5523 13.4477 11 14 11Z" fill="#212121"/>
</svg>

<svg xmlns="http://www.w3.org/2000/svg" width="20" height="20"><path d="M4.825 6.12a.5.5 0 0 1 .055.705L2.159 10l2.72 3.175a.5.5 0 1 1-.759.65l-3-3.5a.5.5 0 0 1 0-.65l3-3.5a.5.5 0 0 1 .705-.055Zm10.295 7.055a.5.5 0 0 0 .76.65l3-3.5a.5.5 0 0 0 0-.65l-3-3.5a.5.5 0 1 0-.76.65L17.842 10l-2.722 3.175ZM6 11a1 1 0 1 0 0-2 1 1 0 0 0 0 2Zm5-1a1 1 0 1 1-2 0 1 1 0 0 1 2 0Zm3 1a1 1 0 1 0 0-2 1 1 0 0 0 0 2Z"/></svg>
